icons/1_Primary/ImprovMX.svg

<svg xmlns="http://www.w3.org/2000/svg" width="1024" height="1024" fill="none">
   <g clip-path="url(#a)">
      <path fill="#9ABEFF" d="M512 1024c282.77 0 512-229.23 512-512S794.77 0 512 0 0 229.23 0 512s229.23 512 512 512Z"/>
      <path fill="#fff" d="M584.16 716.63a101.24 101.24 0 0 1-143.18 1l-1-1a128.657 128.657 0 0 0-73.28-36.17v28.15a103.769 103.769 0 0 1 53.33 28 129.636 129.636 0 0 0 141.695 28.286 129.647 129.647 0 0 0 42.145-28.286 101.066 101.066 0 0 1 50.34-27.22v-28.56a129.412 129.412 0 0 0-70.21 35.8m.19-71.23a101.24 101.24 0 0 1-143.18 1l-1-1a130.33 130.33 0 0 0-184 0l20 20a102 102 0 0 1 144.13 0 129.636 129.636 0 0 0 141.695 28.286A129.647 129.647 0 0 0 603.98 665.4a102 102 0 0 1 144.13 0l20-20a130.33 130.33 0 0 0-184 0m61.39-167.61h.19l-.56-154.2h-65.26l-.19-74.39-134.25.37v74.58h-65.25l.37 154.2L320 511.16l20.14 72.72a126.78 126.78 0 0 1 30.39 1.49l-16.46-59.67 144.31-77.94.37 187.2h29.09l-.56-187.2L672.16 525l-15.66 58.13c9.872-.529 19.773.099 29.5 1.87l20.51-74.77-61.01-32.44Zm-171-199.32h76.1v-.19l.19 45.49-76.26.19-.03-45.49Zm38.41 128.47-103.3 55.94-.37-109.63h36.36l134.25-.56h36.36l.19 109.45-103.49-55.2Z"/>
   </g>
   <defs>
      <clipPath id="a">
         <path fill="#fff" d="M0 0h1024v1024H0z"/>
      </clipPath>
   </defs>
</svg>

<svg width="1024" height="1024" viewBox="0 0 1024 1024" fill="none" xmlns="http://www.w3.org/2000/svg">
<g clip-path="url(#clip0_2_2499)">
<path d="M512 1024C794.77 1024 1024 794.77 1024 512C1024 229.23 794.77 0 512 0C229.23 0 0 229.23 0 512C0 794.77 229.23 1024 512 1024Z" fill="#9ABEFF"/>
<path d="M584.16 716.63C574.824 726.098 563.716 733.634 551.468 738.808C539.22 743.982 526.073 746.693 512.777 746.786C499.481 746.879 486.297 744.352 473.978 739.349C461.659 734.347 450.446 726.967 440.98 717.63L439.98 716.63C420.133 696.93 394.408 684.232 366.7 680.46V708.61C386.854 712.465 405.412 722.209 420.03 736.61C432.077 748.724 446.4 758.336 462.175 764.896C477.95 771.455 494.865 774.832 511.95 774.832C529.034 774.832 545.95 771.455 561.725 764.896C577.5 758.336 591.822 748.724 603.87 736.61C617.677 722.876 635.158 713.424 654.21 709.39V680.83C627.654 685.174 603.112 697.687 584 716.63M584.19 645.4C574.854 654.868 563.746 662.404 551.498 667.578C539.25 672.752 526.103 675.463 512.807 675.556C499.511 675.649 486.327 673.122 474.008 668.119C461.689 663.117 450.476 655.737 441.01 646.4L440.01 645.4C415.581 621.055 382.498 607.384 348.01 607.384C313.521 607.384 280.438 621.055 256.01 645.4L276.01 665.4C295.134 646.308 321.052 635.585 348.075 635.585C375.098 635.585 401.016 646.308 420.14 665.4C432.187 677.514 446.51 687.126 462.285 693.686C478.06 700.245 494.975 703.622 512.06 703.622C529.144 703.622 546.06 700.245 561.835 693.686C577.61 687.126 591.932 677.514 603.98 665.4C623.104 646.308 649.022 635.585 676.045 635.585C703.067 635.585 728.986 646.308 748.11 665.4L768.11 645.4C743.681 621.055 710.598 607.384 676.11 607.384C641.621 607.384 608.538 621.055 584.11 645.4M645.5 477.79H645.69L645.13 323.59H579.87L579.68 249.2L445.43 249.57V324.15H380.18L380.55 478.35L320 511.16L340.14 583.88C350.293 583.155 360.496 583.655 370.53 585.37L354.07 525.7L498.38 447.76L498.75 634.96H527.84L527.28 447.76L672.16 525L656.5 583.13C666.372 582.601 676.273 583.229 686 585L706.51 510.23L645.5 477.79ZM474.5 278.47H550.6V278.28L550.79 323.77L474.53 323.96L474.5 278.47ZM512.91 406.94L409.61 462.88L409.24 353.25H445.6L579.85 352.69H616.21L616.4 462.14L512.91 406.94Z" fill="white"/>
</g>
<defs>
<clipPath id="clip0_2_2499">
<rect width="1024" height="1024" fill="white"/>
</clipPath>
</defs>
</svg>
